src/images/svg/symbols/dash_flag.svg

<svg width="32" height="32" viewBox="0 0 32 32" fill="none" xmlns="http://www.w3.org/2000/svg">
<path d="M0 16C0 7.16344 7.16344 0 16 0C24.8366 0 32 7.16344 32 16C32 24.8366 24.8366 32 16 32C7.16344 32 0 24.8366 0 16Z" fill="#4165A5"/>
<path fill-rule="evenodd" clip-rule="evenodd" d="M22.8893 20.2213C23.5399 19.0184 23.8652 17.6076 23.8652 15.9887C23.8652 14.3546 23.5399 12.9362 22.8893 11.7333C22.2387 10.5305 21.2818 9.60757 20.0184 8.96454C18.755 8.32151 17.2383 8 15.468 8H10.3844V13.2604H8.12988V15.064H10.3844V24H15.468C17.2383 24 18.755 23.6709 20.0184 23.0128C21.2818 22.3546 22.2387 21.4241 22.8893 20.2213ZM12.4496 15.064V22.139H15.3092C17.3971 22.139 18.9933 21.6019 20.0978 20.5277C21.2023 19.4534 21.7546 17.9404 21.7546 15.9887C21.7546 14.0369 21.2061 12.5201 20.1092 11.4383C19.0122 10.3565 17.4123 9.8156 15.3092 9.8156H12.4496V13.2604H16.5466V15.064H12.4496Z" fill="white"/>
</svg>

<svg width="32" height="32" fill="none" xmlns="http://www.w3.org/2000/svg"><path d="M0 16C0 7.163 7.163 0 16 0s16 7.163 16 16-7.163 16-16 16S0 24.837 0 16Z" fill="#4165A5"/><path fill-rule="evenodd" clip-rule="evenodd" d="M22.89 20.221c.65-1.203.975-2.613.975-4.232 0-1.634-.325-3.053-.976-4.256-.65-1.203-1.607-2.125-2.87-2.768C18.754 8.322 17.238 8 15.467 8h-5.084v5.26H8.13v1.804h2.254V24h5.084c1.77 0 3.287-.33 4.55-.987 1.264-.658 2.22-1.589 2.871-2.792Zm-10.44-5.157v7.075h2.86c2.087 0 3.683-.537 4.788-1.611 1.104-1.075 1.657-2.588 1.657-4.54 0-1.951-.549-3.468-1.646-4.55-1.097-1.082-2.697-1.622-4.8-1.622h-2.86v3.444h4.098v1.804H12.45Z" fill="#fff"/></svg>
